!!!OTL: Stille Nacht
!!!XEN: Silent Night
!!!COM: Gruber, Franz
!!!LYR: Mohr, Joseph
!!!ODT: 1818
!!!YOR: The Christmas Fake Book
!!!YOY: 1990
!!!AST: Christmas song
!!!YEC: Brian Luke, 2001
**kern	**harm
*k[]	*k[]
*M6/8	*M6/8
*C:	*C:
*>A	*>A
=1	=1
8.g	I
16a	.
8g	.
4.e	.
=2	=2
8.g	.
16a	.
8g	.
4.e	.
=3	=3
4dd	V7
8dd	.
4.b	.
=4	=4
4cc	I
8cc	.
4.g	.
=5	=5
4a	IV
8a	.
8.cc	.
16b	.
8a	.
=6	=6
8.g	I
16a	.
8g	.
4.e	.
=7	=7
4a	IV
8a	.
8.cc	.
16b	.
8a	.
=8	=8
8.g	I
16a	.
8g	.
4.e	.
=9	=9
4dd	V
8dd	.
8.ff	.
16dd	.
8b	.
=10	=10
4.cc	I
4.ee	.
=11	=11
8.cc	.
16g	.
8e	.
8.g	V7
16f	.
8d	.
=12	=12
2.c	I;
*-	*-
